!!!!SEGMENT: pl-wumfc--r282--001-003_paderewski-ignacy-jan--exercises-1-exercise-3.krn
!!!cenid: 18xx:3162
!!!COM: Paderewski, Ignacy Jan
!!!COM-rismID: pe30029943
!!!CDT: 1860/11/18-1941/06/29
!!!CNT: Polish
!!!GTL: [Exercises 1]
!!!OTL: [Exercise] 3
!!!OMV: 003
!!!PDT:
!!!AGN:
!!!SMS-siglum: PL-Wumfc
!!!SMS-shelfmark: R282
!!!SMS-shelfwork: 001-003 G
!!!SMS-variant:
!!!SMS-altvar:
!!!NIFC-rismSourceID: 1001158933
!!!NIFC-rismChildID: 1001158933
!!!NIFC-islandoraID: pl-wumfc:419
!!!URL-pdf-islandora: https://repozytorium.nifc.pl/islandora/object/pl-wumfc%3A419/datastream/PDF/view
!!!URL-scan: https://polish.musicsources.pl/pl/lokalizacje/galeria/rekopisy/4702 @EN{Scan on Polish Music Sources Website} @PL{Skany w portalu Dziedzictwo Muzyki Polskiej w otwartym dostępie}
!!!IIIF:
!!!ONB-nifc: UWAGA: pierwsza grupa ćwiczeń na skanach 0004-0007
!!!AIN: 1 piano
!!!key: a
!!!filter-modern: sic -sq | shed -e "s/TX(.*):t=P:/tx$1:t=P:/LG" | autostem -r | modori -m |
**kern	**kern
*part1	*part1
*staff2	*staff1
*>[A,A,B]	*>[A,A,B]
*>A	*>A
*I"[Pianoforte]	*I"[Pianoforte]
*I'	*I'
*mI"Pianoforte	*mI"Pianoforte
*mI'pf	*mI'pf
*Ipiano	*Ipiano
*ICklav	*ICklav
*IGsolo	*IGsolo
*clefF4	*clefG2
*k[]	*k[]
*a:	*a:
!LO:MO:null:mod=*M2/2	!LO:MO:null:mod=*M2/2
*	*
!LO:MO:null:mod=*met(c|)	!LO:MO:null:mod=*met(c|)
*	*
!	!LO:TX:a:i:t=C. f
!	!LO:TX:t=P:problem=brak oznaczenia metrycznego
4e\	2e/
4d\	.
=1	=1
4c\	2a/
4A\	.
4B\	2g/
4c\	.
=2	=2
4d\	2f/
4D\	.
4E\	2e/
4F\	.
=3	=3
4G\	1d
4A\	.
4G\	.
4F\	.
=4	=4
2E;\	2e;/
4E\	2b\
4D\	.
=5	=5
4C\	2cc\
4D\	.
4E\	2cc\
4F\	.
=6	=6
4G\	2b\
4A\	.
4B\	2b\
4c\	.
=7	=7
4d\	[>1a
4e\	.
4f\	.
4d\	.
=8	=8
2c;\	2a;/]
=:|!	=:|!
*>B	*>B
4e\	2cc\
4d\	.
=9	=9
4e\	2b\
4f\	.
4g\	2g/
4e\	.
=10	=10
4f\	2a/
4e\	.
4d\	2b\
4g\	.
!!LO:LB:g=original
=11	=11
4e\	1cc
4d\	.
4c\	.
4B\	.
=12	=12
2A;\	2cc;\
4c\	2g/
4B\	.
=13	=13
4c\	2a/
4d\	.
4e\	2g/
4E\	.
=14	=14
4F\	2a/
4G\	.
4A\	2f/
4B\	.
=15	=15
4c\	[>1e
4d\	.
4c\	.
4B\	.
=16	=16
2c;\	2e;/]
4A\	2cc\
4C\	.
=17	=17
4D\	2b\
4E\	.
4F\	2dd\
4D\	.
=18	=18
4E\	2cc\
4F#X\	.
4G#X\	2b\
4E\	.
=19	=19
4A\	1a
4B\	.
4c\	.
4f\	.
=20	=20
2e;\	2b;\
4c\	2e/
4B\	.
=21	=21
4A\	2f/
4B\	.
4c\	2e/
4C\	.
=22	=22
4D\	2d/
4E\	.
4F\	2d/
4BB\	.
=23	=23
4C\	1e
4D\	.
!LO:TX:t=P:problem=uwzględniony fragment dopisany pod pięciolinią	!
4C\	.
4BB\	.
=24	=24
!LO:N:vis=2	!
2.AA\	2.e/
==	==
*-	*-
!!!system-decoration: {(s1,s2)}
!!!RDF**kern: > = above
!!!ENC: Anastazja Marusiak
!!!END: 2021-11-10
!!!ENC: Andrzej Kubiczek
!!!END: 2021-11-13
!!!ENC-modern: Andrzej Borzym
!!!END-modern: 2022-08-29
!!!YEC: Copyright 2022 Narodowy Instytut Fryderyka Chopina (https://polishscores.org)
!!!YEM: License CC-BY-4.0 (https://creativecommons.org/licenses/by/4.0)
